src/activities/sport/1F3BD.svg

<svg id="emoji" viewBox="0 0 72 72" xmlns="http://www.w3.org/2000/svg">
  <g id="grid">
    <path fill="#b3b3b3" d="M68,4V68H4V4H68m4-4H0V72H72V0Z"/>
    <path fill="none" stroke="#00a5ff" stroke-miterlimit="10" stroke-width="0.1" d="M12.923,10.9583H59.0769A1.9231,1.9231,0,0,1,61,12.8814V59.0352a1.9231,1.9231,0,0,1-1.9231,1.9231H12.9231A1.9231,1.9231,0,0,1,11,59.0352V12.8813A1.923,1.923,0,0,1,12.923,10.9583Z"/>
    <rect x="16" y="4" rx="2.2537" width="40" height="64" fill="none" stroke="#00a5ff" stroke-miterlimit="10" stroke-width="0.1"/>
    <rect x="16" y="4" rx="2.2537" width="40" height="64" transform="translate(72) rotate(90)" fill="none" stroke="#00a5ff" stroke-miterlimit="10" stroke-width="0.1"/>
    <circle cx="36" cy="36" r="29" fill="none" stroke="#00a5ff" stroke-miterlimit="10" stroke-width="0.1"/>
  </g>
  <g id="color">
    <g>
      <path fill="#92d3f5" d="M49.9661,4.9838v6s-.41,13,5,13v43h-38v-43c5.3228-.1787,4.9687-13.0312,4.9687-13.0312l.0313-5.9688h3.8363a10,10,0,0,0,20,0Z"/>
      <path fill="#61b2e4" d="M45.7971,5.0243a10,10,0,0,1-20,0s3.9632,5.0527,9.3243,5.19C40.6118,10.3552,45.7971,5.0243,45.7971,5.0243Z"/>
      <path fill="#fcea2b" d="M14.9583,52.0078V47.0331C30.7508,47.0331,45.7971,28.1679,45.7971,5H50C50,30.9117,33.4936,52.0078,14.9583,52.0078Z"/>
    </g>
  </g>
  <g id="line">
    <g>
      <g>
        <path fill="none" stroke="#000000" stroke-linecap="round" stroke-linejoin="round" stroke-width="2" d="M16.8914,46.4939V24.0162c5.3229-.1787,4.9687-13.0313,4.9687-13.0313l.0313-5.9687h3.8363a10,10,0,0,0,20,0h4.1637v6s-.41,13,5,13v43h-38v-14.75"/>
        <path fill="none" stroke="#000" stroke-linecap="round" stroke-linejoin="round" stroke-width="2" d="M41.6674,8.3189A10.0055,10.0055,0,0,1,29.5179,8.203"/>
      </g>
      <path fill="none" stroke="#000" stroke-linecap="round" stroke-linejoin="round" stroke-width="2" d="M14.9583,52.0078V47.0331C30.7508,47.0331,45.7971,28.1679,45.7971,5H50C50,30.9117,33.4936,52.0078,14.9583,52.0078Z"/>
    </g>
  </g>
</svg>

<svg viewBox="0 0 72 72" xmlns="http://www.w3.org/2000/svg"><path fill="#b3b3b3" d="M68 4v64H4V4h64m4-4H0v72h72V0z"/><path fill="none" stroke="#00a5ff" stroke-miterlimit="10" stroke-width=".1" d="M12.923 10.958h46.154A1.923 1.923 0 0161 12.881v46.154a1.923 1.923 0 01-1.923 1.923H12.923A1.923 1.923 0 0111 59.035V12.881a1.923 1.923 0 011.923-1.923z"/><rect x="16" y="4" rx="2.254" width="40" height="64" fill="none" stroke="#00a5ff" stroke-miterlimit="10" stroke-width=".1"/><rect x="16" y="4" rx="2.254" width="40" height="64" transform="rotate(90 36 36)" fill="none" stroke="#00a5ff" stroke-miterlimit="10" stroke-width=".1"/><circle cx="36" cy="36" r="29" fill="none" stroke="#00a5ff" stroke-miterlimit="10" stroke-width=".1"/><g stroke-linecap="round" stroke-miterlimit="10" stroke-width="6" stroke="#fff" fill="none" stroke-linejoin="round"><path d="M16.891 46.494V24.016c5.323-.178 4.97-13.031 4.97-13.031l.03-5.969h3.837a10 10 0 0020 0h4.163v6s-.41 13 5 13v43h-38v-14.75M41.667 8.319a10.005 10.005 0 01-12.15-.116"/><path d="M14.958 52.008v-4.975c15.793 0 30.84-18.865 30.84-42.033H50c0 25.912-16.506 47.008-35.042 47.008z"/></g><path fill="#92d3f5" d="M49.966 4.984v6s-.41 13 5 13v43h-38v-43c5.323-.179 4.969-13.031 4.969-13.031l.031-5.97h3.836a10 10 0 0020 0z"/><path fill="#61b2e4" d="M45.797 5.024a10 10 0 01-20 0s3.963 5.053 9.324 5.19c5.49.141 10.676-5.19 10.676-5.19z"/><path fill="#fcea2b" d="M14.958 52.008v-4.975c15.793 0 30.84-18.865 30.84-42.033H50c0 25.912-16.506 47.008-35.042 47.008z"/><g><g fill="none" stroke="#000" stroke-linecap="round" stroke-linejoin="round" stroke-width="2"><path d="M16.891 46.494V24.016c5.323-.178 4.97-13.031 4.97-13.031l.03-5.969h3.837a10 10 0 0020 0h4.163v6s-.41 13 5 13v43h-38v-14.75M41.667 8.319a10.005 10.005 0 01-12.15-.116"/><path d="M14.958 52.008v-4.975c15.793 0 30.84-18.865 30.84-42.033H50c0 25.912-16.506 47.008-35.042 47.008z"/></g></g></svg>
